packages/tokens/icons/angryUser/size24Px.svg

<svg viewBox="0 0 24 24" fill="none" xmlns="http://www.w3.org/2000/svg" width="1em" height="1em"><path d="M7.5 21.5L7.5 21C7.5 19.6193 8.61929 18.5 10 18.5H14C15.3807 18.5 16.5 19.6193 16.5 21V21.5" stroke="currentColor" stroke-linecap="round" stroke-linejoin="round"/><path d="M12 16.5C13.3807 16.5 14.5 15.3807 14.5 14C14.5 12.6193 13.3807 11.5 12 11.5C10.6193 11.5 9.5 12.6193 9.5 14C9.5 15.3807 10.6193 16.5 12 16.5Z" stroke="currentColor" stroke-linecap="round" stroke-linejoin="round"/><path d="M7.5 2.5L14 2.5C14.8284 2.5 15.5 3.17157 15.5 4V4C15.5 4.82843 14.8284 5.5 14 5.5L9.5 5.5C8.94772 5.5 8.5 5.94772 8.5 6.5V6.5C8.5 7.05228 8.94772 7.5 9.5 7.5L13.5 7.5C14.0523 7.5 14.5 7.94772 14.5 8.5V8.5C14.5 9.05228 14.0523 9.5 13.5 9.5H11.5" stroke="currentColor" stroke-linecap="round" stroke-linejoin="round"/></svg>

<svg xmlns="http://www.w3.org/2000/svg" fill="none" viewBox="0 0 24 24" width="1em" height="1em"><path stroke="currentColor" stroke-linecap="round" stroke-linejoin="round" d="M7.5 21.5V21a2.5 2.5 0 0 1 2.5-2.5h4a2.5 2.5 0 0 1 2.5 2.5v.5m-4.5-5a2.5 2.5 0 1 0 0-5 2.5 2.5 0 0 0 0 5Zm-4.5-14H14A1.5 1.5 0 0 1 15.5 4v0A1.5 1.5 0 0 1 14 5.5H9.5a1 1 0 0 0-1 1v0a1 1 0 0 0 1 1h4a1 1 0 0 1 1 1v0a1 1 0 0 1-1 1h-2"/></svg>
